teeny/outline/messenger.svg

<svg width="15" height="15" viewBox="0 0 15 15" fill="none" xmlns="http://www.w3.org/2000/svg">
<path d="M2.93478 12.2643L3.41722 12.3956C3.46886 12.206 3.40458 12.0036 3.25296 11.8786L2.93478 12.2643ZM2.32609 14.5L1.84365 14.3687C1.79246 14.5567 1.85516 14.7573 2.00431 14.8827C2.15345 15.0081 2.36187 15.0354 2.5383 14.9527L2.32609 14.5ZM4.76087 13.3587L4.9491 12.8955C4.81999 12.843 4.67484 12.8468 4.54865 12.906L4.76087 13.3587ZM6.5 6.5L6.8 6.1L6.5072 5.8804L6.20938 6.09313L6.5 6.5ZM8.5 8L8.2 8.4L8.51633 8.63725L8.82009 8.38411L8.5 8ZM7.5 0C3.37858 0 0 3.20099 0 7.19565H1C1 3.79466 3.88855 1 7.5 1V0ZM0 7.19565C0 9.38419 1.02256 11.335 2.6166 12.65L3.25296 11.8786C1.87049 10.7381 1 9.06224 1 7.19565H0ZM2.45234 12.1329L1.84365 14.3687L2.80853 14.6313L3.41722 12.3956L2.45234 12.1329ZM2.5383 14.9527L4.97309 13.8114L4.54865 12.906L2.11387 14.0473L2.5383 14.9527ZM4.57264 13.8219C5.47308 14.1878 6.46213 14.3913 7.5 14.3913V13.3913C6.59369 13.3913 5.73232 13.2137 4.9491 12.8955L4.57264 13.8219ZM7.5 14.3913C11.6214 14.3913 15 11.1903 15 7.19565H14C14 10.5966 11.1114 13.3913 7.5 13.3913V14.3913ZM15 7.19565C15 3.20099 11.6214 0 7.5 0V1C11.1114 1 14 3.79466 14 7.19565H15ZM3.29062 9.40687L6.79062 6.90687L6.20938 6.09313L2.70938 8.59313L3.29062 9.40687ZM6.2 6.9L8.2 8.4L8.8 7.6L6.8 6.1L6.2 6.9ZM8.82009 8.38411L11.8201 5.88411L11.1799 5.11589L8.17991 7.61589L8.82009 8.38411Z" fill="black"/>
</svg>

<svg viewBox="0 0 15 15" xmlns="http://www.w3.org/2000/svg"><path d="M2.93 12.26l.48.13c.05-.19-.02-.4-.17-.52l-.32.38Zm-.61 2.23l-.49-.14c-.06.18.01.38.16.51 .14.12.35.15.53.07l-.22-.46Zm2.43-1.15l.18-.47c-.13-.06-.28-.05-.41.01l.21.45Zm1.73-6.86l.3-.4 -.3-.22 -.3.21 .29.4Zm2 1.5l-.3.4 .31.23 .3-.26 -.33-.39Zm-1-8c-4.13 0-7.5 3.2-7.5 7.19h1c0-3.41 2.88-6.2 6.5-6.2v-1Zm-7.5 7.19c0 2.18 1.02 4.13 2.61 5.45l.63-.78C1.83 10.69.96 9.02.96 7.15h-1Zm2.45 4.93l-.61 2.23 .96.26 .6-2.24 -.97-.27Zm.08 2.81l2.43-1.15 -.43-.91 -2.44 1.14 .42.9Zm2.03-1.14c.9.36 1.88.56 2.92.56v-1c-.91 0-1.77-.18-2.56-.5l-.38.92Zm2.92.56c4.12 0 7.5-3.21 7.5-7.2h-1c0 3.4-2.89 6.19-6.5 6.19v1Zm7.5-7.2c0-4-3.38-7.2-7.5-7.2v1c3.61 0 6.5 2.79 6.5 6.19h1ZM3.25 9.34l3.5-2.5 -.59-.82 -3.5 2.5 .58.81Zm2.9-2.51l2 1.5 .6-.8 -2-1.5 -.6.8Zm2.62 1.48l3-2.5 -.65-.77 -3 2.5 .64.76Z"/></svg>
